!!!OTL: Ding ding luo gege luo
!!!ARE: Asia, China,ÿZhejiang Pingyang
!! III, 622
!!!SCT: C1905
!!!YEM: Copyright 1995, estate of Helmut Schaffrath.
**kern
*ICvox
*Ivox
!! Mixed meters:  2/4; 3/4
*M2/4
*k[b-]
*F:
{8dd
8dd
4cc
=1
8dd
8dd
4cc
=2
8gg
8r
4ff}
=3
{8dd
16cc
16dd
8ff
8gg
=4
8ff
8dd
4cc
=5
*M3/4
2.dd}
=6
*M2/4
{8r
8ff
8dd
8r
=7
8cc
8dd
8ff
16gg
16gg
=8
8ff
16ff
16gg
4dd}
=9
{8cc
8dd
8ff
16gg
16gg
=10
8dd
16dd
16ff
4cc
=11
4dd
8dd
8ff
=12
4dd
4r}
==
!!!AGN: Shange, Mutong shange
!!!AMT: irregular
!!!AIN: vox
!!!EED: Helmut Schaffrath
!!!EEV: 1.0
*-
